svg/fluentui-system-icons/ic_fluent_checkmark_lock_16_regular.svg

<svg width="16" height="16" viewBox="0 0 16 16" fill="none" xmlns="http://www.w3.org/2000/svg">
<path d="M7 1C10.3137 1 13 3.68629 13 7C13 7.07046 12.9988 7.14063 12.9964 7.2105C12.6911 7.07769 12.3542 7.00404 12 7.00403L12 7C12 4.23858 9.76142 2 7 2C4.23858 2 2 4.23858 2 7C2 9.76142 4.23858 12 7 12C7.3435 12 7.67891 11.9654 8.00293 11.8994V12.9165C7.6768 12.9714 7.34174 13 7 13C3.68629 13 1 10.3137 1 7C1 3.68629 3.68629 1 7 1ZM6.24953 8.04242L9.12028 5.16398C9.31528 4.96846 9.63186 4.96803 9.82738 5.16304C10.0012 5.33637 10.0208 5.60577 9.88609 5.80082L9.82833 5.87014L6.60403 9.10308C6.43053 9.27704 6.16082 9.29654 5.96576 9.16146L5.89645 9.10355L4.14645 7.35355C3.95118 7.15829 3.95118 6.84171 4.14645 6.64645C4.32001 6.47288 4.58944 6.4536 4.78431 6.58859L4.85355 6.64645L6.24953 8.04242ZM10.5 9.99828C10.4767 9.99832 10.4534 9.9989 10.4304 10H10C9.44772 10 9 10.4477 9 11V14C9 14.5523 9.44772 15 10 15H14C14.5523 15 15 14.5523 15 14V13.5L15.0029 11.4983C15.0029 11.4665 15.0019 11.435 15 11.4038V11C15 10.4477 14.5523 10 14 10H13.5755C13.5514 9.99885 13.5273 9.99828 13.5029 9.99828H13.5V9.50403C13.5 8.6756 12.8284 8.00403 12 8.00403C11.1716 8.00403 10.5 8.6756 10.5 9.50403V9.99828ZM11.5 9.50403C11.5 9.22789 11.7239 9.00403 12 9.00403C12.2761 9.00403 12.5 9.22789 12.5 9.50403V9.99828H11.5V9.50403ZM12 13C11.7239 13 11.5 12.7761 11.5 12.5C11.5 12.2239 11.7239 12 12 12C12.2761 12 12.5 12.2239 12.5 12.5C12.5 12.7761 12.2761 13 12 13Z" fill="#212121"/>
</svg>

<svg xmlns="http://www.w3.org/2000/svg" width="16" height="16"><path d="M7 1a6 6 0 0 1 5.996 6.21A2.492 2.492 0 0 0 12 7.004V7a5 5 0 1 0-3.997 4.9v1.016A6 6 0 1 1 7 1Zm-.75 7.042 2.87-2.878a.5.5 0 0 1 .766.637l-.058.07-3.224 3.232a.5.5 0 0 1-.638.058l-.07-.057-1.75-1.75a.5.5 0 0 1 .638-.765l.07.057L6.25 8.042Zm4.25 1.956c-.023 0-.047 0-.07.002H10a1 1 0 0 0-1 1v3a1 1 0 0 0 1 1h4a1 1 0 0 0 1-1v-.5l.003-2.002c0-.031-.001-.063-.003-.094V11a1 1 0 0 0-1-1h-.425a1.52 1.52 0 0 0-.072-.002H13.5v-.494a1.5 1.5 0 0 0-3 0v.494Zm1-.494a.5.5 0 0 1 1 0v.494h-1v-.494ZM12 13a.5.5 0 1 1 0-1 .5.5 0 0 1 0 1Z"/></svg>
